picto/tram-right.svg

<svg class="color-immutable" width="24" height="24" viewBox="0 0 24 24" fill="none" xmlns="http://www.w3.org/2000/svg"><g clip-path="url(#a)"><path d="M0 22.5v-21C0 .675.675 0 1.5 0h21c.825 0 1.5.675 1.5 1.5v21c0 .825-.675 1.5-1.5 1.5h-21C.675 24 0 23.325 0 22.5Z" fill="#2D327D"/><path d="M10.42 4.186a.347.347 0 1 1 .49-.49l3.881 3.881h3.086c.552 0 1.04.361 1.202.89l1.894 6.203a.57.57 0 0 1 .027.174v2.706a.375.375 0 0 1-.375.375H3.001V13.5h3.637a.375.375 0 0 0 .375-.375v-4.5a.375.375 0 0 0-.375-.375H3.001v-.674h10.81l-3.391-3.39Zm6.83 10.44c0 .207.168.375.375.375h2.218a.375.375 0 0 0 .359-.484l-1.814-5.942a.562.562 0 0 0-.538-.398h-.037a.562.562 0 0 0-.562.562v5.887h-.001Zm-1.818-.113a.562.562 0 0 0 1.125 0V8.739a.562.562 0 0 0-1.125 0v5.774Zm-2.494-5.887a.375.375 0 0 0-.375-.375h-4.5a.375.375 0 0 0-.375.375v4.5c0 .207.168.375.375.375h4.5a.375.375 0 0 0 .375-.375v-4.5Zm.675.113v5.774a.562.562 0 0 0 1.124 0V8.739a.562.562 0 1 0-1.124 0ZM12.349 18.675h3.779a2.039 2.039 0 0 1-3.779 0ZM7.849 18.675h3.78a2.039 2.039 0 0 1-3.78 0ZM21 20.325H3V21h18v-.675ZM21 3H3v.375h18V3Z" fill="#fff"/></g><defs><clipPath id="a"><path fill="#fff" d="M0 0h24v24H0z"/></clipPath></defs></svg>

<svg class="color-immutable" width="24" height="24" viewBox="0 0 24 24" fill="none" xmlns="http://www.w3.org/2000/svg"><path d="M0 22.5V1.5C0 0.675 0.675 0 1.5 0H22.5C23.325 0 24 0.675 24 1.5V22.5C24 23.325 23.325 24 22.5 24H1.5C0.675 24 0 23.325 0 22.5Z" fill="#2D327D"/><path d="M10.42 4.186C10.355 4.121 10.318 4.033 10.318 3.941C10.318 3.749 10.473 3.594 10.665 3.594C10.757 3.594 10.845 3.63 10.91 3.696L14.791 7.577H17.877C18.429 7.577 18.917 7.938 19.079 8.467L20.973 14.67C20.991 14.726 21 14.785 21 14.844V17.55C21 17.757 20.832 17.925 20.625 17.925H3.00101V13.5H6.63801C6.84501 13.5 7.01301 13.332 7.01301 13.125V8.625C7.01301 8.418 6.84501 8.25 6.63801 8.25H3.00101V7.576H13.811L10.42 4.186ZM17.25 14.626C17.25 14.833 17.418 15.001 17.625 15.001H19.843C20.05 15.001 20.218 14.833 20.218 14.626C20.218 14.589 20.212 14.552 20.202 14.517L18.388 8.575C18.316 8.338 18.097 8.177 17.85 8.177H17.813C17.502 8.177 17.251 8.429 17.251 8.739V14.626H17.25ZM15.432 14.513C15.432 14.823 15.684 15.075 15.994 15.075C16.305 15.075 16.557 14.823 16.557 14.513V8.739C16.557 8.428 16.305 8.177 15.994 8.177C15.684 8.177 15.432 8.429 15.432 8.739V14.513ZM12.938 8.626C12.938 8.419 12.77 8.251 12.563 8.251H8.06301C7.85601 8.251 7.68801 8.419 7.68801 8.626V13.126C7.68801 13.333 7.85601 13.501 8.06301 13.501H12.563C12.77 13.501 12.938 13.333 12.938 13.126V8.626ZM13.613 8.739V14.513C13.613 14.823 13.865 15.075 14.175 15.075C14.486 15.075 14.737 14.823 14.737 14.513V8.739C14.737 8.428 14.485 8.177 14.175 8.177C13.865 8.176 13.613 8.428 13.613 8.739Z" fill="white"/><path d="M12.349 18.675H16.128C15.817 19.445 15.069 19.95 14.238 19.95C13.408 19.95 12.66 19.446 12.349 18.675Z" fill="white"/><path d="M7.849 18.675H11.629C11.318 19.445 10.57 19.95 9.739 19.95C8.908 19.95 8.16 19.446 7.849 18.675Z" fill="white"/><path d="M21 20.325H3V21H21V20.325Z" fill="white"/><path d="M21 3H3V3.375H21V3Z" fill="white"/></svg>
